**harm	**harte	**timestamp	**phrase	**leadinstrument	**kern
*M4/4	*M4/4	*	*	*	*
*C:	*C:	*	*	*	*C:
1r;	N	0	.	r	1r;
=1	=1	=1	=1	=1	=1
*>A_intro	*>A_intro	*>A_intro	*>A_intro	*>A_intro	*>A_intro
1r	N	0.186	newline	r	1r
=2	=2	=2	=2	=2	=2
1r	N	1.832	.	r	1r
=3	=3	=3	=3	=3	=3
1I	C:maj	3.478	newline	piano	1C 1e 1g
=4	=4	=4	=4	=4	=4
1I	C:maj	5.093	.	piano	1C 1e 1g
=5	=5	=5	=5	=5	=5
2IV	F:maj	6.707	.	piano	2F 2a 2cc
2I	C:maj	7.514	.	piano	2C 2e 2g
=6	=6	=6	=6	=6	=6
1I	C:maj	8.322	.	piano	1C 1e 1g
=7	=7	=7	=7	=7	=7
1I	C:maj	9.936	newline	piano	1C 1e 1g
=8	=8	=8	=8	=8	=8
1I	C:maj	11.565	.	piano	1C 1e 1g
=9	=9	=9	=9	=9	=9
2IV	F:maj	13.193	.	piano	2F 2a 2cc
2I	C:maj	14.008	.	piano	2C 2e 2g
=10	=10	=10	=10	=10	=10
1I	C:maj	14.822	.	piano	1C 1e 1g
=11	=11	=11	=11	=11	=11
1I	C:maj	16.451	newline	voice	1C 1e 1g
=12	=12	=12	=12	=12	=12
1I	C:maj	18.044	.	voice	1C 1e 1g
=13	=13	=13	=13	=13	=13
1I	C:maj	19.638	.	voice	1C 1e 1g
=14	=14	=14	=14	=14	=14
2IV	F:maj	21.232	.	voice	2F 2a 2cc
2I	C:maj	22.028	.	voice	2C 2e 2g
=15	=15	=15	=15	=15	=15
*>B_chorus	*>B_chorus	*>B_chorus	*>B_chorus	*>B_chorus	*>B_chorus
1I	C:maj	22.825	newline	voice	1C 1e 1g
=16	=16	=16	=16	=16	=16
1IV	F:maj	24.456	.	voice	1F 1a 1cc
=17	=17	=17	=17	=17	=17
1I	C:maj	26.086	.	voice	1C 1e 1g
=18	=18	=18	=18	=18	=18
1IV	F:maj	27.717	.	voice	1F 1a 1cc
=19	=19	=19	=19	=19	=19
2I	C:maj	29.347	newline	voice	2C 2e 2g
2IIIc	E:maj/5	30.143	.	voice	2e 2g# 2B
=20	=20	=20	=20	=20	=20
2vi	A:min	30.938	.	voice	2A 2cc 2ee
2V	G:maj	31.733	.	voice	2G 2b 2dd
=21	=21	=21	=21	=21	=21
1IV	F:maj	32.528	.	voice	1F 1a 1cc
=22	=22	=22	=22	=22	=22
*M2/4	*M2/4	*M2/4	*M2/4	*M2/4	*M2/4
2IV	F:maj	34.119	.	voice	2F 2a 2cc
=23	=23	=23	=23	=23	=23
*M4/4	*M4/4	*M4/4	*M4/4	*M4/4	*M4/4
1I	C:maj	34.914	newline	voice	1C 1e 1g
=24	=24	=24	=24	=24	=24
1I	C:maj	36.496	.	voice	1C 1e 1g
=25	=25	=25	=25	=25	=25
*>C_verse	*>C_verse	*>C_verse	*>C_verse	*>C_verse	*>C_verse
1I	C:maj	38.078	newline	voice	1C 1e 1g
=26	=26	=26	=26	=26	=26
1I	C:maj	39.7	.	voice	1C 1e 1g
=27	=27	=27	=27	=27	=27
1IV	F:maj	41.322	.	voice	1F 1a 1cc
=28	=28	=28	=28	=28	=28
2IV	F:maj	42.944	.	voice	2F 2a 2cc
2I	C:maj	43.755	.	voice	2C 2e 2g
=29	=29	=29	=29	=29	=29
1I	C:maj	44.565	newline	voice	1C 1e 1g
=30	=30	=30	=30	=30	=30
1I	C:maj	46.168	.	voice	1C 1e 1g
=31	=31	=31	=31	=31	=31
1IV	F:maj	47.771	.	voice	1F 1a 1cc
=32	=32	=32	=32	=32	=32
2IV	F:maj	49.374	.	voice	2F 2a 2cc
2I	C:maj	50.175	.	voice	2C 2e 2g
=33	=33	=33	=33	=33	=33
1I	C:maj	50.977	newline	voice	1C 1e 1g
=34	=34	=34	=34	=34	=34
1I	C:maj	52.594	.	voice	1C 1e 1g
=35	=35	=35	=35	=35	=35
1IV	F:maj	54.21	.	voice	1F 1a 1cc
=36	=36	=36	=36	=36	=36
2IV	F:maj	55.827	.	voice	2F 2a 2cc
2I	C:maj	56.635	.	voice	2C 2e 2g
=37	=37	=37	=37	=37	=37
1I	C:maj	57.444	newline	voice	1C 1e 1g
=38	=38	=38	=38	=38	=38
1I	C:maj	59.056	.	voice	1C 1e 1g
=39	=39	=39	=39	=39	=39
1IV	F:maj	60.668	.	voice	1F 1a 1cc
=40	=40	=40	=40	=40	=40
2IV	F:maj	62.28	.	voice	2F 2a 2cc
2I	C:maj	63.086	.	voice	2C 2e 2g
=41	=41	=41	=41	=41	=41
*>B_chorus	*>B_chorus	*>B_chorus	*>B_chorus	*>B_chorus	*>B_chorus
1I	C:maj	63.892	newline	voice	1C 1e 1g
=42	=42	=42	=42	=42	=42
1IV	F:maj	65.484	.	voice	1F 1a 1cc
=43	=43	=43	=43	=43	=43
1I	C:maj	67.076	.	voice	1C 1e 1g
=44	=44	=44	=44	=44	=44
1IV	F:maj	68.668	.	voice	1F 1a 1cc
=45	=45	=45	=45	=45	=45
2I	C:maj	70.26	newline	voice	2C 2e 2g
2IIIc	E:maj/5	71.07	.	voice	2e 2g# 2B
=46	=46	=46	=46	=46	=46
2vi	A:min	71.88	.	voice	2A 2cc 2ee
2V	G:maj	72.691	.	voice	2G 2b 2dd
=47	=47	=47	=47	=47	=47
1IV	F:maj	73.501	.	voice	1F 1a 1cc
=48	=48	=48	=48	=48	=48
*M2/4	*M2/4	*M2/4	*M2/4	*M2/4	*M2/4
2IV	F:maj	75.122	.	voice	2F 2a 2cc
=49	=49	=49	=49	=49	=49
*M4/4	*M4/4	*M4/4	*M4/4	*M4/4	*M4/4
1I	C:maj	75.933	newline	voice	1C 1e 1g
=50	=50	=50	=50	=50	=50
1I	C:maj	77.528	.	voice	1C 1e 1g
=51	=51	=51	=51	=51	=51
*>C_verse	*>C_verse	*>C_verse	*>C_verse	*>C_verse	*>C_verse
1I	C:maj	79.123	newline	voice	1C 1e 1g
=52	=52	=52	=52	=52	=52
1I	C:maj	80.732	.	voice	1C 1e 1g
=53	=53	=53	=53	=53	=53
1IV	F:maj	82.34	.	voice	1F 1a 1cc
=54	=54	=54	=54	=54	=54
2IV	F:maj	83.949	.	voice	2F 2a 2cc
2I	C:maj	84.753	.	voice	2C 2e 2g
=55	=55	=55	=55	=55	=55
1I	C:maj	85.557	newline	voice	1C 1e 1g
=56	=56	=56	=56	=56	=56
1I	C:maj	87.168	.	voice	1C 1e 1g
=57	=57	=57	=57	=57	=57
1IV	F:maj	88.779	.	voice	1F 1a 1cc
=58	=58	=58	=58	=58	=58
2IV	F:maj	90.39	.	voice	2F 2a 2cc
2I	C:maj	91.195	.	voice	2C 2e 2g
=59	=59	=59	=59	=59	=59
1I	C:maj	92.001	newline	voice	1C 1e 1g
=60	=60	=60	=60	=60	=60
1I	C:maj	93.596	.	voice	1C 1e 1g
=61	=61	=61	=61	=61	=61
1IV	F:maj	95.192	.	voice	1F 1a 1cc
=62	=62	=62	=62	=62	=62
2IV	F:maj	96.787	.	voice	2F 2a 2cc
2I	C:maj	97.585	.	voice	2C 2e 2g
=63	=63	=63	=63	=63	=63
1I	C:maj	98.383	newline	voice	1C 1e 1g
=64	=64	=64	=64	=64	=64
1I	C:maj	99.983	.	voice	1C 1e 1g
=65	=65	=65	=65	=65	=65
1IV	F:maj	101.582	.	voice	1F 1a 1cc
=66	=66	=66	=66	=66	=66
2IV	F:maj	103.182	.	voice	2F 2a 2cc
2I	C:maj	103.982	.	voice	2C 2e 2g
=67	=67	=67	=67	=67	=67
*>B_chorus	*>B_chorus	*>B_chorus	*>B_chorus	*>B_chorus	*>B_chorus
1I	C:maj	104.782	newline	voice	1C 1e 1g
=68	=68	=68	=68	=68	=68
1IV	F:maj	106.394	.	voice	1F 1a 1cc
=69	=69	=69	=69	=69	=69
1I	C:maj	108.007	.	voice	1C 1e 1g
=70	=70	=70	=70	=70	=70
1IV	F:maj	109.619	.	voice	1F 1a 1cc
=71	=71	=71	=71	=71	=71
2I	C:maj	111.232	newline	voice	2C 2e 2g
2IIIc	E:maj/5	112.038	.	voice	2e 2g# 2B
=72	=72	=72	=72	=72	=72
2vi	A:min	112.844	.	voice	2A 2cc 2ee
2V	G:maj	113.651	.	voice	2G 2b 2dd
=73	=73	=73	=73	=73	=73
1IV	F:maj	114.457	.	voice	1F 1a 1cc
=74	=74	=74	=74	=74	=74
*M2/4	*M2/4	*M2/4	*M2/4	*M2/4	*M2/4
2IV	F:maj	116.07	.	voice	2F 2a 2cc
=75	=75	=75	=75	=75	=75
*M4/4	*M4/4	*M4/4	*M4/4	*M4/4	*M4/4
1I	C:maj	116.876	newline	voice	1C 1e 1g
=76	=76	=76	=76	=76	=76
1I	C:maj	118.429	.	voice	1C 1e 1g
=77	=77	=77	=77	=77	=77
*>C_solo	*>C_solo	*>C_solo	*>C_solo	*>C_solo	*>C_solo
1I	C:maj	119.982	newline	guitar	1C 1e 1g
=78	=78	=78	=78	=78	=78
1I	C:maj	121.578	.	guitar	1C 1e 1g
=79	=79	=79	=79	=79	=79
1IV	F:maj	123.174	.	guitar	1F 1a 1cc
=80	=80	=80	=80	=80	=80
2IV	F:maj	124.77	.	guitar	2F 2a 2cc
2I	C:maj	125.568	.	guitar	2C 2e 2g
=81	=81	=81	=81	=81	=81
1I	C:maj	126.366	newline	harmonica	1C 1e 1g
=82	=82	=82	=82	=82	=82
1I	C:maj	127.931	.	harmonica	1C 1e 1g
=83	=83	=83	=83	=83	=83
1IV	F:maj	129.496	.	harmonica	1F 1a 1cc
=84	=84	=84	=84	=84	=84
2IV	F:maj	131.062	.	harmonica	2F 2a 2cc
2I	C:maj	131.844	.	harmonica	2C 2e 2g
=85	=85	=85	=85	=85	=85
1I	C:maj	132.627	newline	organ	1C 1e 1g
=86	=86	=86	=86	=86	=86
1I	C:maj	134.217	.	organ	1C 1e 1g
=87	=87	=87	=87	=87	=87
1IV	F:maj	135.807	.	organ	1F 1a 1cc
=88	=88	=88	=88	=88	=88
2IV	F:maj	137.397	.	organ	2F 2a 2cc
2I	C:maj	138.192	.	organ	2C 2e 2g
=89	=89	=89	=89	=89	=89
1I	C:maj	138.987	newline	guitar	1C 1e 1g
=90	=90	=90	=90	=90	=90
1I	C:maj	140.533	.	guitar	1C 1e 1g
=91	=91	=91	=91	=91	=91
1IV	F:maj	142.079	.	guitar	1F 1a 1cc
=92	=92	=92	=92	=92	=92
2IV	F:maj	143.625	.	guitar	2F 2a 2cc
2I	C:maj	144.398	.	guitar	2C 2e 2g
=93	=93	=93	=93	=93	=93
*>C_solo	*>C_solo	*>C_solo	*>C_solo	*>C_solo	*>C_solo
1I	C:maj	145.171	newline	harmonica	1C 1e 1g
=94	=94	=94	=94	=94	=94
1I	C:maj	146.736	.	harmonica	1C 1e 1g
=95	=95	=95	=95	=95	=95
1IV	F:maj	148.301	.	harmonica	1F 1a 1cc
=96	=96	=96	=96	=96	=96
2IV	F:maj	149.866	.	harmonica	2F 2a 2cc
2I	C:maj	150.648	.	harmonica	2C 2e 2g
=97	=97	=97	=97	=97	=97
1I	C:maj	151.43	newline	organ	1C 1e 1g
=98	=98	=98	=98	=98	=98
1I	C:maj	152.997	.	organ	1C 1e 1g
=99	=99	=99	=99	=99	=99
1IV	F:maj	154.565	.	organ	1F 1a 1cc
=100	=100	=100	=100	=100	=100
2IV	F:maj	156.132	.	organ	2F 2a 2cc
2I	C:maj	156.915	.	organ	2C 2e 2g
=101	=101	=101	=101	=101	=101
*>C2_outro	*>C2_outro	*>C2_outro	*>C2_outro	*>C2_outro	*>C2_outro
1I	C:maj	157.699	newline	voice	1C 1e 1g
=102	=102	=102	=102	=102	=102
1I	C:maj	159.27	.	voice	1C 1e 1g
=103	=103	=103	=103	=103	=103
1IV	F:maj	160.841	.	voice	1F 1a 1cc
=104	=104	=104	=104	=104	=104
1IV	F:maj	162.412	.	voice	1F 1a 1cc
=105	=105	=105	=105	=105	=105
1I	C:maj	163.983	newline	voice	1C 1e 1g
=106	=106	=106	=106	=106	=106
1I	C:maj	165.546	.	voice	1C 1e 1g
=107	=107	=107	=107	=107	=107
1IV	F:maj	167.109	.	voice	1F 1a 1cc
=108	=108	=108	=108	=108	=108
1IV	F:maj	168.672	.	voice	1F 1a 1cc
=109	=109	=109	=109	=109	=109
1I	C:maj	170.236	newline	voice	1C 1e 1g
=110	=110	=110	=110	=110	=110
1I	C:maj	171.821	.	voice	1C 1e 1g
=111	=111	=111	=111	=111	=111
1IV	F:maj	173.406	.	voice	1F 1a 1cc
=112	=112	=112	=112	=112	=112
1IV	F:maj	174.991	.	voice	1F 1a 1cc
=113	=113	=113	=113	=113	=113
1I	C:maj	176.576	newline	voice	1C 1e 1g
=114	=114	=114	=114	=114	=114
1I	C:maj	178.13	.	voice	1C 1e 1g
=115	=115	=115	=115	=115	=115
1IV	F:maj	179.683	.	voice	1F 1a 1cc
=116	=116	=116	=116	=116	=116
1IV	F:maj	181.236	.	voice	1F 1a 1cc
=117	=117	=117	=117	=117	=117
1I	C:maj	182.789	newline	voice	1C 1e 1g
=118	=118	=118	=118	=118	=118
1I	C:maj	184.334	.	voice	1C 1e 1g
=119	=119	=119	=119	=119	=119
1IV	F:maj	185.878	.	voice	1F 1a 1cc
=120	=120	=120	=120	=120	=120
1IV	F:maj	187.423	.	voice	1F 1a 1cc
=121	=121	=121	=121	=121	=121
1I	C:maj	188.968	newline	voice	1C 1e 1g
=122	=122	=122	=122	=122	=122
1I	C:maj	190.502	.	voice	1C 1e 1g
=123	=123	=123	=123	=123	=123
1IV	F:maj	192.037	.	voice	1F 1a 1cc
=124	=124	=124	=124	=124	=124
1IV	F:maj	193.571	.	voice	1F 1a 1cc
=125	=125	=125	=125	=125	=125
1I	C:maj	195.106	newline	voice	1C 1e 1g
=126	=126	=126	=126	=126	=126
1I	C:maj	196.66	.	voice	1C 1e 1g
=127	=127	=127	=127	=127	=127
1IV	F:maj	198.215	.	voice	1F 1a 1cc
=128	=128	=128	=128	=128	=128
1IV	F:maj	199.77	.	voice	1F 1a 1cc
=129	=129	=129	=129	=129	=129
*>_fadeout	*>_fadeout	*>_fadeout	*>_fadeout	*>_fadeout	*>_fadeout
1I	C:maj	201.324	newline	voice	1C 1e 1g
=130	=130	=130	=130	=130	=130
1I	C:maj	202.895	.	voice	1C 1e 1g
=131	=131	=131	=131	=131	=131
1IV	F:maj	204.466	.	voice	1F 1a 1cc
=132	=132	=132	=132	=132	=132
1IV	F:maj	206.037	.	voice	1F 1a 1cc
=133	=133	=133	=133	=133	=133
1I	C:maj	207.608	newline	voice	1C 1e 1g
=134	=134	=134	=134	=134	=134
1I	C:maj	209.167	.	voice	1C 1e 1g
=135	=135	=135	=135	=135	=135
1IV	F:maj	210.727	.	voice	1F 1a 1cc
=136	=136	=136	=136	=136	=136
1IV	F:maj	212.286	.	voice	1F 1a 1cc
=137	=137	=137	=137	=137	=137
1I	C:maj	213.846	newline	voice	1C 1e 1g
=138	=138	=138	=138	=138	=138
1I	C:maj	215.376	.	voice	1C 1e 1g
=139	=139	=139	=139	=139	=139
1IV	F:maj	216.906	.	voice	1F 1a 1cc
=140	=140	=140	=140	=140	=140
1IV	F:maj	218.435	.	voice	1F 1a 1cc
=141	=141	=141	=141	=141	=141
1I	C:maj	219.965	.	voice	1C 1e 1g
1r;	N	221.495	.	r	1r;
1r;	N	227.971	.	r	1r;
*-	*-	*-	*-	*-	*-
!!!OTL: Looking For A Love
!!!COC: The J. Geils Band
!!!BillboardChartDate: 1972/01/29, 1972/01/22
!!!BillboardPeak: 39, 39
!!!BillboardWeeksOnChart: 10, 10
!!!SampleTargetRank: 44, 40
!!!SampleActualRank: 45, 39
!!!SampleID#: 662, 664
!!!RDF**harmony: **recip + pitch class of root + harmonic quality
!!!RDF**harte: Chris Harte's syntax, used by MIREX
!!!RDF**phrase: newline = linebreak in original McGill transcription
!!!RDF**timestamp: McGill audio timestamp in seconds
!!!RDF**leadinstrument: original McGill primary instrumentation annotation
!!!RDT: 2017/01/12/
!!!ENC: Nathaniel Condit-Schultz
!!!EST: Awating manual error checking and editing.
